src/components/ProtocolIcon/avalanche.svg

<svg width="16" height="16" viewBox="0 0 16 16" fill="none" xmlns="http://www.w3.org/2000/svg">
<g clip-path="url(#clip0_3433_139)">
<path fill-rule="evenodd" clip-rule="evenodd" d="M15.9952 8.00084C15.9952 12.4133 12.4159 15.9902 8.00054 15.9902C3.5852 15.9902 0.00585938 12.4133 0.00585938 8.00084C0.00585938 3.58843 3.5852 0.0114746 8.00054 0.0114746C12.4159 0.0114746 15.9952 3.58843 15.9952 8.00084ZM5.73507 11.1802H4.18353C3.85751 11.1802 3.69646 11.1802 3.59827 11.1174C3.49221 11.0487 3.4274 10.9349 3.41954 10.8092C3.41365 10.6935 3.49418 10.5521 3.65522 10.2695L7.48617 3.52142C7.64919 3.23487 7.73167 3.09159 7.83576 3.0386C7.9477 2.98169 8.08126 2.98169 8.19321 3.0386C8.2973 3.09159 8.37979 3.23487 8.54279 3.52142L9.33036 4.89529L9.33437 4.90231C9.51043 5.20972 9.59972 5.36561 9.6387 5.52923C9.6819 5.70784 9.6819 5.89625 9.6387 6.07486C9.59942 6.23972 9.51104 6.39674 9.33232 6.70881L7.32001 10.2636L7.3148 10.2727C7.13758 10.5827 7.04777 10.7398 6.92329 10.8583C6.78777 10.9879 6.62476 11.082 6.44604 11.1351C6.28302 11.1802 6.10038 11.1802 5.73507 11.1802ZM9.65323 11.1802H11.8764C12.2044 11.1802 12.3694 11.1802 12.4677 11.1155C12.5737 11.0468 12.6404 10.9309 12.6464 10.8054C12.652 10.6934 12.5733 10.5575 12.4189 10.2913C12.4136 10.2823 12.4083 10.2731 12.4028 10.2637L11.2892 8.35988L11.2765 8.33844C11.1201 8.074 11.0411 7.94046 10.9396 7.88884C10.8277 7.83191 10.6961 7.83191 10.5842 7.88884C10.482 7.94183 10.3995 8.08118 10.2365 8.36184L9.12688 10.2656L9.12308 10.2722C8.96064 10.5524 8.87946 10.6924 8.88532 10.8073C8.89317 10.933 8.95798 11.0487 9.06403 11.1174C9.16028 11.1802 9.32525 11.1802 9.65323 11.1802Z" fill="#E84142"/>
</g>
<defs>
<clipPath id="clip0_3433_139">
<rect width="16" height="16" fill="white"/>
</clipPath>
</defs>
</svg>

<svg xmlns="http://www.w3.org/2000/svg" width="16" height="16" fill="none"><g clip-path="url(#a)"><path fill="#E84142" fill-rule="evenodd" d="M15.995 8c0 4.413-3.58 7.99-7.994 7.99C3.585 15.99.006 12.413.006 8 .006 3.589 3.586.012 8 .012s7.994 3.577 7.994 7.99m-10.26 3.18H4.184c-.326 0-.488 0-.586-.063a.4.4 0 0 1-.178-.308c-.006-.115.074-.257.235-.54l3.831-6.748c.163-.286.246-.43.35-.482a.4.4 0 0 1 .357 0c.104.053.187.196.35.482l.787 1.374.004.007c.176.308.266.464.305.627.043.179.043.367 0 .546-.04.165-.128.322-.307.634L7.32 10.264l-.005.009c-.177.31-.267.467-.392.585-.135.13-.298.224-.477.277-.163.045-.346.045-.71.045m3.918 0h2.223c.328 0 .493 0 .592-.064a.4.4 0 0 0 .178-.31c.006-.113-.073-.248-.227-.515l-.016-.027-1.114-1.904-.012-.022c-.157-.264-.236-.398-.337-.45a.39.39 0 0 0-.356 0c-.102.054-.184.193-.348.474l-1.11 1.904-.003.006c-.162.28-.244.42-.238.535a.4.4 0 0 0 .179.31c.096.063.261.063.59.063" clip-rule="evenodd"/></g><defs><clipPath id="a"><path fill="#fff" d="M0 0h16v16H0z"/></clipPath></defs></svg>
